dist/images/no-image.svg

<svg height="512" viewBox="0 0 58 51" width="512" xmlns="http://www.w3.org/2000/svg"><g id="Page-1" fill="none" fill-rule="evenodd"><g id="034---Gallery" fill-rule="nonzero"><path id="Shape" d="m6 9v-3c0-3.3137085 2.6862915-6 6-6h40c3.3137085 0 6 2.6862915 6 6v30c0 3.3137085-2.6862915 6-6 6z" fill="#547580"/><rect id="Rectangle-path" fill="#ecf0f1" height="42" rx="6" width="52" y="9"/><path id="Shape" d="m46 47c1.1045695 0 2-.8954305 2-2v-30c0-1.1045695-.8954305-2-2-2h-40c-1.1045695 0-2 .8954305-2 2v30c0 1.1045695.8954305 2 2 2z" fill="#84b5cb"/><circle id="Oval" cx="31" cy="21" fill="#f0c419" r="3"/><path id="Shape" d="m48 27v18c-.0032948 1.1032019-.8967981 1.9967052-2 2h-10c-1.872228-4.9536834-4.8752844-9.4017682-8.77-12.99 6.078217-4.3383401 13.3059546-6.777745 20.77-7.01z" fill="#5d4c72"/><path id="Shape" d="m36 47h-30c-1.10320187-.0032948-1.9967052-.8967981-2-2v-20c3.33.08 14.36.98 23.23 9.01 3.8947156 3.5882318 6.897772 8.0363166 8.77 12.99z" fill="#955ba5"/></g></g></svg>

<svg height="512" viewBox="0 0 58 51" width="512" xmlns="http://www.w3.org/2000/svg"><g fill-rule="nonzero" fill="none"><path d="M6 9V6a6 6 0 016-6h40a6 6 0 016 6v30a6 6 0 01-6 6z" fill="#547580"/><rect fill="#ecf0f1" height="42" rx="6" width="52" y="9"/><path d="M46 47a2 2 0 002-2V15a2 2 0 00-2-2H6a2 2 0 00-2 2v30a2 2 0 002 2z" fill="#84b5cb"/><circle cx="31" cy="21" fill="#f0c419" r="3"/><path d="M48 27v18a2.006 2.006 0 01-2 2H36a34.013 34.013 0 00-8.77-12.99A37.774 37.774 0 0148 27z" fill="#5d4c72"/><path d="M36 47H6a2.006 2.006 0 01-2-2V25c3.33.08 14.36.98 23.23 9.01A34.013 34.013 0 0136 47z" fill="#955ba5"/></g></svg>
